!!!OTL: EIN GUCKGUCK WOLLT AUSFLIEGEN
!!!ARE: Europa, Mitteleuropa, Deutschland
!!!SCT: E0483
!!!YEM: Copyright 1995, estate of Helmut Schaffrath.
**kern
*ICvox
*Ivox
*M4/4
*k[b-]
*F:
{4f
=1
4f
4cc
4cc
4a
=2
2cc
4cc}
{4cc
=3
4a
4g
4a
4b-
=4
2g
4f}
{4f
=5
4a
4g
4a
4b-
=6
2cc
4g}
{4g
=7
4a
4g
4a
4b-
=8
2cc
4g
4g
=9
2f
4r}
==
!!!AGN: Liebes - Lied
!!!ONB: ESAC (Essen Associative Code) Database: ERK1
!!!AMT: simple quadruple
!!!AIN: vox
!!!EED: Helmut Schaffrath
!!!EEV: 1.0
*-
